client/src/assets/generatedImages/sprite/FACEBOOK_ICON.svg

<svg viewBox="0 0 16 16"><g fill-rule="evenodd"><path d="M0,1.99406028 C0,0.892771196 0.894513756,0 1.99406028,0 L14.0059397,0 C15.1072288,0 16,0.894513756 16,1.99406028 L16,14.0059397 C16,15.1072288 15.1054862,16 14.0059397,16 L1.99406028,16 C0.892771196,16 0,15.1054862 0,14.0059397 L0,1.99406028 Z M8.23182341,16 L10.3991764,16 L10.3991764,9.93141161 L12.5663127,9.93141161 L13,7.76405862 L10.3991764,7.76405862 L10.3246195,6.3468265 C10.3246195,5.66107601 10.5049432,5.17342158 11.4698488,5.17342158 L12.974642,5.17385505 L12.974642,3.12202197 C12.7618079,3.09319618 12.3142495,3 11.4644304,3 C9.69001851,3 8.18500859,4.20353112 8.18500859,6.23043964 L8.23182341,7.76405862 L6.06425368,7.76405862 L6.06425368,9.93141161 L8.23182341,9.93141161 L8.23182341,16 Z"/></g></svg>

<svg viewBox="0 0 16 16"><path fill-rule="evenodd" d="M0 2C0 .9.9 0 2 0h12a2 2 0 0 1 2 2v12a2 2 0 0 1-2 2H2a2 2 0 0 1-2-2V2Zm8.2 14h2.2v-6h2.2l.4-2.2h-2.6V6.3c0-.6.1-1.1 1-1.1H13v-2a4 4 0 0 0-1.5-.2C9.7 3 8.2 4.2 8.2 6.2v1.6H6.1v2.1h2.1V16Z"/></svg>
